X:1
T:Title
%%score { ( 1 3 ) | 2 }
L:1/8
M:2/4
K:C
V:1 treble nm="Grand Piano"
V:3 treble 
V:2 bass 
V:1
 z2[Q:1/4=100] [EG]2 | [Cc]2 [CG]2 | [CA]2 [CA]2 | z2 F2 | E4 |[M:5/8] C3 E2 |[M:2/4] F2 E2 | %7
 D2 G2 | [EA]2 [DA]2 |[M:3/8] [B,G]3 |[M:1/4] [EG]2 |[M:2/4] [Cc]2 [CG]2 | [CA]2 [CA]2 | z2 F2 | %14
 E4 |[M:5/8] C3 E2 |[M:2/4] F2 E2 | D2 G2 | [EA]2 [DA]2 |[M:3/8] [B,G]3 |[M:1/4] G2 | %21
[M:2/4] c2 d2 | [Ge]2 [Ac]2 | [Af]2 [Ge]2 |[M:5/8] [Gd]3 [Ge]2 |[M:2/4] [Gc]2 A2 | G2 c2 | c2 B2 | %28
[M:5/8] [Ec]3 z2 |] %29
V:2
 z2 [C,G,]2 | [E,G,]2 [C,E,]2 | [A,,E,]2 [F,,F,]2 | [C,E,C]2 .[D,F,A,]2 | [C,G,C]4 | %5
[M:5/8] [C,E,]3 [C,G,C]2 |[M:2/4] [D,F,B,]2 [C,G,C]2 | [G,B,]2 [E,G,B,]2 | [C,G,]2 [D,^F,]2 | %9
[M:3/8] [G,,G,]3 |[M:1/4] [C,G,]2 |[M:2/4] [E,G,]2 [C,E,]2 | [A,,E,]2 [F,,F,]2 | %13
 [C,E,C]2 .[D,F,A,]2 | [C,G,C]4 |[M:5/8] [C,E,]3 [C,G,C]2 |[M:2/4] [D,F,B,]2 [C,G,C]2 | %17
 [G,B,]2 [E,G,B,]2 | [C,G,]2 [D,^F,]2 |[M:3/8] [G,,G,]3 |[M:1/4][K:treble] [B,D]2 | %21
[M:2/4] [A,CE]2 [G,B,G]2 | [C,C]2 [A,C]2 | [F,C]2 [C,C]2 |[M:5/8] [G,B,]3 [C,C]2 | %25
[M:2/4] E,2 [F,CF]2 | [CE]2 [A,CE]2 | [F,A,D]2 [G,D]2 |[M:5/8] [C,G,]3 z2 |] %29
V:3
 x4 | x4 | x4 | G2 z B, | x4 |[M:5/8] x5 |[M:2/4] x4 | x4 | x4 |[M:3/8] x3 |[M:1/4] x2 | %11
[M:2/4] x4 | x4 | G2 z B, | x4 |[M:5/8] x5 |[M:2/4] x4 | x4 | x4 |[M:3/8] x3 |[M:1/4] x2 | %21
[M:2/4] x4 | x4 | x4 |[M:5/8] x5 |[M:2/4] x4 | x4 | x4 |[M:5/8] x5 |] %29

